img/sprite.svg

<svg xmlns="http://www.w3.org/2000/svg" xmlns:xlink="http://www.w3.org/1999/xlink"><symbol id="icon-contacts-email" viewBox="0 0 37 26"><g fill="none"><path fill-rule="evenodd" clip-rule="evenodd" d="M32.2786 20.9327L23.6178 13L32.2786 5.06731L31.0976 3.80529L18.5 15.3438L5.9024 3.80529L4.72137 5.06731L13.3822 13L4.72137 20.9327L5.9024 22.1947L14.6617 14.1719L18.5 17.6875L22.3383 14.1719L31.0976 22.1947L32.2786 20.9327ZM3.15193 0.5C1.5339 0.5 0.222229 1.89768 0.222229 3.61572V22.3843C0.222229 24.105 1.52326 25.5 3.15193 25.5H33.8481C35.4661 25.5 36.7778 24.1023 36.7778 22.3843V3.61572C36.7778 1.89496 35.4768 0.5 33.8481 0.5H3.15193Z" fill="currentColor"/></g></symbol><symbol id="icon-contacts-phone" viewBox="0 0 32 30"><g fill="none"><path fill-rule="evenodd" clip-rule="evenodd" d="M16 0.172363C10.4071 0.172363 4.80078 1.1177 2.76656 3.00191C1.07881 4.56509 0.516199 7.32664 0.326551 9.07513C0.326551 9.07513 0.300415 9.24791 0.300415 9.32224C0.300415 10.0079 0.889015 10.5578 1.60866 10.5578C1.69369 10.5578 4.84016 10.3168 6.73714 10.1686C6.78279 10.1623 6.8288 10.1562 6.87445 10.1439C7.58099 10.1255 8.15022 9.58166 8.15022 8.90832L8.15655 6.47406C8.15655 5.72035 8.80441 5.11481 9.60253 5.11481H22.3974C23.1957 5.11481 23.8436 5.72028 23.8436 6.47406L23.85 8.90832C23.85 9.58166 24.4192 10.1255 25.1257 10.1439C25.171 10.1563 25.217 10.1623 25.2632 10.1686C27.1603 10.3167 30.3067 10.5578 30.3915 10.5578C31.1108 10.5578 31.6998 10.0079 31.6998 9.32224C31.6998 9.24791 31.6737 9.07513 31.6737 9.07513C31.4839 7.32664 30.922 4.56516 29.2341 3.00191C27.1993 1.1177 21.5929 0.172363 16 0.172363ZM16 16.2355C14.5543 16.2355 13.3834 17.3413 13.3834 18.7067C13.3834 20.0721 14.5543 21.1778 16 21.1778C17.4457 21.1778 18.6166 20.0721 18.6166 18.7067C18.6166 17.3413 17.4457 16.2355 16 16.2355ZM14.0376 10.6751V9.13061C14.0376 8.2781 13.3048 7.58613 12.4023 7.58613C11.4997 7.58613 10.7669 8.27817 10.7669 9.13061V10.6751L1.94202 19.5779C1.3339 20.1402 0.954391 20.9245 0.954391 21.7897V24.2671C0.954391 25.6325 2.1254 26.7383 3.57102 26.7383H4.22521V28.2829C4.22521 29.1354 4.95802 29.8273 5.86062 29.8273C6.76321 29.8273 7.49595 29.1354 7.49595 28.2829V26.7383H24.5041V28.2829C24.5041 29.1354 25.2366 29.8273 26.1396 29.8273C27.0422 29.8273 27.7748 29.1354 27.7748 28.2829V26.7383H28.4289C29.8746 26.7383 31.0455 25.6325 31.0455 24.2671V21.7897C31.0455 20.9245 30.6661 20.1401 30.0579 19.5779L21.2333 10.6751V9.13061C21.2333 8.2781 20.5005 7.58613 19.5979 7.58613C18.6953 7.58613 17.9626 8.27817 17.9626 9.13061V10.6751H14.0376ZM16 13.7643C18.8914 13.7643 21.2333 15.976 21.2333 18.7067C21.2333 21.4375 18.8915 23.6494 16 23.6494C13.1086 23.6494 10.7668 21.4375 10.7668 18.7067C10.7668 15.976 13.1086 13.7643 16 13.7643Z" fill="currentColor"/></g></symbol><symbol id="icon-route-remove-cross" viewBox="0 0 20 20"><g fill="none"><path d="M19 1.75L1 18.25" stroke="currentColor" stroke-width="1.7" stroke-linecap="round" stroke-linejoin="round"/><path d="M1 1.75L19 18.25" stroke="currentColor" stroke-width="1.7" stroke-linecap="round" stroke-linejoin="round"/></g></symbol><symbol id="icon-transport-bmx" viewBox="0 0 22 18"><g fill="none"><path d="M17.1875 18C16.3346 18 15.5008 17.7471 14.7916 17.2732C14.0824 16.7994 13.5297 16.1258 13.2033 15.3378C12.8769 14.5498 12.7915 13.6827 12.9579 12.8462C13.1243 12.0096 13.535 11.2412 14.1381 10.6381C14.7412 10.035 15.5096 9.62426 16.3462 9.45787C17.1827 9.29147 18.0498 9.37687 18.8378 9.70327C19.6258 10.0297 20.2994 10.5824 20.7732 11.2916C21.2471 12.0008 21.5 12.8346 21.5 13.6875C21.4988 14.8309 21.044 15.927 20.2355 16.7355C19.427 17.544 18.3309 17.9988 17.1875 18ZM17.1875 10.875C16.6312 10.875 16.0875 11.04 15.625 11.349C15.1624 11.658 14.802 12.0973 14.5891 12.6112C14.3762 13.1251 14.3205 13.6906 14.429 14.2362C14.5376 14.7818 14.8054 15.2829 15.1988 15.6762C15.5921 16.0696 16.0932 16.3374 16.6388 16.446C17.1844 16.5545 17.7499 16.4988 18.2638 16.2859C18.7777 16.073 19.217 15.7126 19.526 15.25C19.8351 14.7875 20 14.2438 20 13.6875C19.9991 12.9418 19.7025 12.227 19.1753 11.6997C18.648 11.1725 17.9332 10.8759 17.1875 10.875Z" fill="currentColor"/><path d="M4.8125 18C3.95957 18 3.12579 17.7471 2.41661 17.2732C1.70742 16.7994 1.15467 16.1258 0.828271 15.3378C0.501869 14.5498 0.416467 13.6827 0.582865 12.8462C0.749264 12.0096 1.15999 11.2412 1.7631 10.6381C2.36622 10.035 3.13463 9.62426 3.97117 9.45787C4.80772 9.29147 5.67482 9.37687 6.46282 9.70327C7.25083 10.0297 7.92435 10.5824 8.39822 11.2916C8.87208 12.0008 9.125 12.8346 9.125 13.6875C9.12376 14.8309 8.66901 15.927 7.86053 16.7355C7.05205 17.544 5.95587 17.9988 4.8125 18ZM4.8125 10.875C4.25624 10.875 3.71247 11.04 3.24996 11.349C2.78745 11.658 2.42696 12.0973 2.21409 12.6112C2.00122 13.1251 1.94552 13.6906 2.05404 14.2362C2.16256 14.7818 2.43043 15.2829 2.82376 15.6762C3.2171 16.0696 3.71824 16.3374 4.26381 16.446C4.80938 16.5545 5.37488 16.4988 5.8888 16.2859C6.40272 16.073 6.84197 15.7126 7.15101 15.25C7.46005 14.7875 7.625 14.2438 7.625 13.6875C7.62413 12.9418 7.32754 12.227 6.80028 11.6997C6.27302 11.1725 5.55816 10.8759 4.8125 10.875Z" fill="currentColor"/><path d="M14 3.00005C14.1976 3.00073 14.3933 2.96225 14.5759 2.88681C14.7585 2.81138 14.9244 2.7005 15.0638 2.56058C15.2033 2.42065 15.3137 2.25447 15.3886 2.07163C15.4634 1.88879 15.5013 1.69293 15.5 1.49536C15.5022 1.29878 15.4651 1.10374 15.3911 0.921638C15.317 0.739537 15.2074 0.574034 15.0686 0.434805C14.9298 0.295576 14.7646 0.185416 14.5827 0.110767C14.4009 0.0361174 14.2059 -0.00152278 14.0094 4.7162e-05C13.8124 -0.000568412 13.6172 0.0376205 13.435 0.112434C13.2528 0.187247 13.0871 0.29722 12.9473 0.436072C12.8076 0.574925 12.6966 0.739938 12.6207 0.921691C12.5447 1.10344 12.5053 1.29838 12.5047 1.49536C12.5041 1.69234 12.5422 1.88752 12.6171 2.06974C12.6919 2.25197 12.8018 2.41767 12.9407 2.55739C13.0796 2.69712 13.2446 2.80812 13.4263 2.88407C13.6081 2.96002 13.803 2.99943 14 3.00005Z" fill="currentColor"/><path d="M16.2289 6.00028H14.1777C14.144 6.00028 14.111 5.99124 14.082 5.97408C14.0531 5.95693 14.0293 5.9323 14.0131 5.90278L12.5253 3.17606C12.4205 2.97342 12.2694 2.79832 12.0843 2.66492C11.8993 2.53152 11.6854 2.44357 11.46 2.4082C11.2346 2.37282 11.004 2.39102 10.787 2.4613C10.5699 2.53159 10.3725 2.652 10.2106 2.81278L6.93594 6.11278C6.66083 6.39358 6.50467 6.7697 6.5 7.16278C6.5 7.9784 7.09063 8.26903 7.36719 8.43309C8.70313 9.20278 9.64391 9.76575 10.16 10.0784C10.1874 10.0951 10.2101 10.1186 10.2259 10.1466C10.2416 10.1746 10.2499 10.2061 10.25 10.2382V13.4782C10.25 13.8818 10.5603 14.2282 10.9639 14.2484C11.0652 14.2533 11.1665 14.2376 11.2616 14.2022C11.3567 14.1668 11.4436 14.1125 11.517 14.0426C11.5905 13.9726 11.6491 13.8885 11.6891 13.7953C11.7291 13.7021 11.7499 13.6017 11.75 13.5003V9.46903C11.7501 9.34997 11.7218 9.2326 11.6675 9.12664C11.6132 9.02067 11.5345 8.92915 11.4378 8.85965L9.70344 7.61231C9.68167 7.59673 9.66349 7.57667 9.65011 7.55348C9.63674 7.53029 9.62849 7.50451 9.62591 7.47786C9.62334 7.45122 9.6265 7.42433 9.63518 7.39901C9.64386 7.37369 9.65787 7.35052 9.67625 7.33106L11.645 5.23153C11.6652 5.20993 11.6902 5.1934 11.718 5.18331C11.7458 5.17322 11.7756 5.16984 11.8049 5.17345C11.8342 5.17706 11.8623 5.18756 11.8868 5.20409C11.9113 5.22062 11.9316 5.24271 11.9459 5.26856L12.9688 7.1145C13.0338 7.23151 13.1289 7.329 13.2443 7.39683C13.3597 7.46467 13.4911 7.50039 13.625 7.50028H16.25C16.3516 7.50039 16.4522 7.47987 16.5456 7.43994C16.639 7.40001 16.7234 7.34152 16.7935 7.268C16.8636 7.19449 16.9181 7.10749 16.9536 7.01229C16.9891 6.91709 17.0049 6.81567 17 6.71418C16.9803 6.31059 16.6325 6.00028 16.2289 6.00028Z" fill="currentColor"/></g></symbol><symbol id="icon-transport-car" viewBox="0 0 18 20"><g fill="none"><path d="M4.50098 13.5714C4.50098 13.1771 4.35456 12.8404 4.06171 12.5614C3.76886 12.2824 3.41549 12.1429 3.0016 12.1429C2.58771 12.1429 2.23435 12.2824 1.9415 12.5614C1.64865 12.8404 1.50223 13.1771 1.50223 13.5714C1.50223 13.9658 1.64865 14.3025 1.9415 14.5815C2.23435 14.8605 2.58771 15 3.0016 15C3.41549 15 3.76886 14.8605 4.06171 14.5815C4.35456 14.3025 4.50098 13.9658 4.50098 13.5714ZM16.496 13.5714C16.496 13.1771 16.3496 12.8404 16.0567 12.5614C15.7639 12.2824 15.4105 12.1429 14.9966 12.1429C14.5827 12.1429 14.2293 12.2824 13.9365 12.5614C13.6437 12.8404 13.4972 13.1771 13.4972 13.5714C13.4972 13.9658 13.6437 14.3025 13.9365 14.5815C14.2293 14.8605 14.5827 15 14.9966 15C15.4105 15 15.7639 14.8605 16.0567 14.5815C16.3496 14.3025 16.496 13.9658 16.496 13.5714ZM15.9571 9.15179L15.1137 4.86607C15.0747 4.69494 14.9868 4.55543 14.8502 4.44754C14.7135 4.33966 14.5554 4.28571 14.3758 4.28571H3.62244C3.44283 4.28571 3.28469 4.33966 3.14803 4.44754C3.01137 4.55543 2.92351 4.69494 2.88447 4.86607L2.04107 9.15179C2.00202 9.375 2.05669 9.57217 2.20506 9.7433C2.35344 9.91443 2.54476 10 2.77904 10H15.2192C15.4534 10 15.6448 9.91443 15.7931 9.7433C15.9415 9.57217 15.9962 9.375 15.9571 9.15179ZM13.3098 2.32143C13.3098 2.17262 13.2551 2.04613 13.1458 1.94196C13.0365 1.8378 12.9037 1.78571 12.7475 1.78571H5.25067C5.09448 1.78571 4.96172 1.8378 4.8524 1.94196C4.74307 2.04613 4.6884 2.17262 4.6884 2.32143C4.6884 2.47024 4.74307 2.59673 4.8524 2.70089C4.96172 2.80506 5.09448 2.85714 5.25067 2.85714H12.7475C12.9037 2.85714 13.0365 2.80506 13.1458 2.70089C13.2551 2.59673 13.3098 2.47024 13.3098 2.32143ZM17.9954 10.4129V17.1429H16.496V18.5714C16.496 18.9658 16.3496 19.3025 16.0567 19.5815C15.7639 19.8605 15.4105 20 14.9966 20C14.5827 20 14.2293 19.8605 13.9365 19.5815C13.6437 19.3025 13.4972 18.9658 13.4972 18.5714V17.1429H4.50098V18.5714C4.50098 18.9658 4.35456 19.3025 4.06171 19.5815C3.76886 19.8605 3.41549 20 3.0016 20C2.58771 20 2.23435 19.8605 1.9415 19.5815C1.64865 19.3025 1.50223 18.9658 1.50223 18.5714V17.1429H0.00285339V10.4129C0.00285339 9.57961 0.100469 8.75 0.2957 7.92411L1.50223 2.85714C1.57251 2.27679 1.95321 1.76711 2.64433 1.32812C3.33545 0.889137 4.23351 0.558036 5.33852 0.334821C6.44353 0.111607 7.66372 0 8.99911 0C10.3345 0 11.5547 0.111607 12.6597 0.334821C13.7647 0.558036 14.6628 0.889137 15.3539 1.32812C16.045 1.76711 16.4257 2.27679 16.496 2.85714L17.7259 7.92411C17.9056 8.68304 17.9954 9.51265 17.9954 10.4129Z" fill="currentColor"/></g></symbol><symbol id="icon-transport-plane" viewBox="0 0 23 22"><g fill="none"><path d="M18.5347 1.1803C17.7301 1.36073 16.9218 1.542 16.6212 2.03873L14.2941 6.41228L1.79919 9.21442L1.29295 10.6118L10.8544 11.4647L9.23212 15.2509L5.60602 16.0641L4.69562 17.5521L7.31158 17.8201L7.60988 19.0371C7.74352 19.4685 8.21259 19.7565 8.61297 19.6667L9.82168 19.3956L11.2228 21.6492L12.1332 20.1611L11.2383 16.5101L13.8637 13.3536L18.8731 21.6468L19.8832 20.5656L16.8005 7.9887L19.6314 3.93144C19.9358 3.43387 19.7373 2.6238 19.5378 1.80994C19.439 1.40681 18.9351 1.09051 18.5347 1.1803Z" fill="currentColor"/></g></symbol><symbol id="icon-transport-walk" viewBox="0 0 18 20"><g fill="none"><path d="M13.4545 4C14.4587 4 15.2727 3.10457 15.2727 2C15.2727 0.895431 14.4587 0 13.4545 0C12.4504 0 11.6364 0.895431 11.6364 2C11.6364 3.10457 12.4504 4 13.4545 4Z" fill="currentColor"/><path d="M12.3428 8.96897C12.5514 9.31105 12.8508 9.57419 13.2001 9.72268C13.5495 9.87117 13.9319 9.8978 14.2955 9.79897L17.31 8.96997L16.8709 7.02997L13.8564 7.85897L12.6027 5.79197C12.3349 5.35053 11.9192 5.04354 11.4464 4.93797L7.95002 4.16797C7.55888 4.08162 7.15277 4.13933 6.79441 4.33217C6.43606 4.52502 6.14539 4.84229 5.9673 5.23497L4.46002 8.55097L6.08639 9.44597L7.59366 6.12897L9.38184 6.52297L4.7582 15H0.727295V17H4.7582C5.39275 17 5.99002 16.628 6.3173 16.029L8.06093 12.833L12.76 13.867L14.4109 19.316L16.1346 18.683L14.4846 13.235C14.3827 12.9005 14.2026 12.6014 13.9622 12.3679C13.7219 12.1345 13.4298 11.9748 13.1155 11.905L10.3527 11.298L11.9637 8.34397L12.3428 8.96897Z" fill="currentColor"/></g></symbol></svg>

<svg xmlns="http://www.w3.org/2000/svg" xmlns:xlink="http://www.w3.org/1999/xlink"><symbol id="icon-contacts-email" viewBox="0 0 37 26"><path fill-rule="evenodd" clip-rule="evenodd" d="M32.279 20.933L23.618 13l8.66-7.933-1.18-1.262L18.5 15.344 5.902 3.805l-1.18 1.262L13.381 13l-8.66 7.933 1.18 1.262 8.76-8.023 3.838 3.515 3.838-3.515 8.76 8.023 1.18-1.262zM3.152.5C1.534.5.222 1.898.222 3.616v18.768c0 1.721 1.301 3.116 2.93 3.116h30.696c1.618 0 2.93-1.398 2.93-3.116V3.616c0-1.721-1.301-3.116-2.93-3.116H3.152z" fill="currentColor"/></symbol><symbol id="icon-contacts-phone" viewBox="0 0 32 30"><path fill-rule="evenodd" clip-rule="evenodd" d="M16 .172c-5.593 0-11.2.946-13.233 2.83C1.079 4.565.517 7.327.327 9.075c0 0-.027.173-.027.247 0 .686.589 1.236 1.309 1.236.085 0 3.231-.241 5.128-.39.046-.006.092-.012.137-.024.707-.018 1.276-.562 1.276-1.236l.007-2.434c0-.754.647-1.36 1.446-1.36h12.794c.799 0 1.447.606 1.447 1.36l.006 2.434c0 .674.57 1.218 1.276 1.236.045.012.091.018.137.025 1.897.148 5.044.389 5.128.389.72 0 1.309-.55 1.309-1.236 0-.074-.026-.247-.026-.247-.19-1.748-.752-4.51-2.44-6.073C27.2 1.118 21.593.172 16 .172zm0 16.063c-1.446 0-2.617 1.106-2.617 2.472 0 1.365 1.171 2.47 2.617 2.47s2.617-1.105 2.617-2.47c0-1.366-1.171-2.472-2.617-2.472zm-1.962-5.56V9.131c0-.853-.733-1.545-1.636-1.545-.902 0-1.635.692-1.635 1.545v1.544l-8.825 8.903a3.008 3.008 0 00-.988 2.212v2.477c0 1.366 1.171 2.471 2.617 2.471h.654v1.545c0 .852.733 1.544 1.636 1.544.902 0 1.635-.692 1.635-1.544v-1.545h17.008v1.545c0 .852.733 1.544 1.636 1.544.902 0 1.635-.692 1.635-1.544v-1.545h.654c1.446 0 2.617-1.105 2.617-2.47V21.79c0-.866-.38-1.65-.988-2.212l-8.825-8.903V9.131c0-.853-.733-1.545-1.635-1.545-.903 0-1.635.692-1.635 1.545v1.544h-3.925zM16 13.765c2.891 0 5.233 2.211 5.233 4.942 0 2.73-2.341 4.942-5.233 4.942-2.891 0-5.233-2.212-5.233-4.942 0-2.731 2.342-4.943 5.233-4.943z" fill="currentColor"/></symbol><symbol id="icon-route-remove-cross" viewBox="0 0 20 20"><path d="M19 1.75L1 18.25m0-16.5l18 16.5" stroke="currentColor" stroke-width="1.7" stroke-linecap="round" stroke-linejoin="round"/></symbol><symbol id="icon-transport-bmx" viewBox="0 0 22 18"><path d="M17.188 18a4.312 4.312 0 110-8.625 4.312 4.312 0 010 8.625zm0-7.125a2.813 2.813 0 100 5.625 2.813 2.813 0 000-5.625zM4.813 18a4.312 4.312 0 110-8.624 4.312 4.312 0 010 8.624zm0-7.125a2.813 2.813 0 100 5.626 2.813 2.813 0 000-5.626zM14 3a1.495 1.495 0 001.5-1.505A1.48 1.48 0 0014.01 0 1.5 1.5 0 1014 3z" fill="currentColor"/><path d="M16.229 6h-2.051a.188.188 0 01-.165-.097l-1.488-2.727a1.453 1.453 0 00-2.314-.363l-3.275 3.3c-.275.28-.431.657-.436 1.05 0 .815.59 1.106.867 1.27 1.336.77 2.277 1.333 2.793 1.645a.188.188 0 01.09.16v3.24c0 .404.31.75.714.77a.75.75 0 00.786-.748V9.47a.75.75 0 00-.312-.61L9.703 7.613a.188.188 0 01-.027-.28l1.969-2.1a.188.188 0 01.3.037l1.024 1.845a.75.75 0 00.656.386h2.625a.75.75 0 00.75-.786.765.765 0 00-.771-.714z" fill="currentColor"/></symbol><symbol id="icon-transport-car" viewBox="0 0 18 20"><path d="M4.501 13.571c0-.394-.146-.73-.44-1.01a1.481 1.481 0 00-1.06-.418c-.413 0-.767.14-1.06.418a1.35 1.35 0 00-.439 1.01c0 .395.147.732.44 1.01.292.28.646.419 1.06.419.413 0 .767-.14 1.06-.418.293-.28.439-.616.439-1.01zm11.995 0c0-.394-.146-.73-.44-1.01a1.481 1.481 0 00-1.06-.418c-.413 0-.767.14-1.06.418a1.35 1.35 0 00-.439 1.01c0 .395.147.732.44 1.01.292.28.646.419 1.06.419.414 0 .767-.14 1.06-.418.293-.28.439-.616.439-1.01zm-.539-4.42l-.843-4.285a.744.744 0 00-.738-.58H3.622a.744.744 0 00-.738.58l-.843 4.286a.682.682 0 00.164.591c.148.171.34.257.574.257h12.44a.725.725 0 00.574-.257.682.682 0 00.164-.591zm-2.647-6.83a.505.505 0 00-.164-.379.556.556 0 00-.399-.156H5.252a.556.556 0 00-.399.156.505.505 0 00-.164.38c0 .148.055.275.164.379.11.104.242.156.399.156h7.497a.556.556 0 00.398-.156.505.505 0 00.164-.38zm4.685 8.092v6.73h-1.499v1.428c0 .395-.146.731-.44 1.01a1.481 1.481 0 01-1.06.419c-.413 0-.767-.14-1.06-.419a1.345 1.345 0 01-.439-1.01v-1.428H4.501v1.428c0 .395-.146.731-.44 1.01a1.481 1.481 0 01-1.06.419c-.413 0-.767-.14-1.06-.419a1.345 1.345 0 01-.439-1.01v-1.428h-1.5v-6.73c0-.833.098-1.663.294-2.489l1.206-5.067c.07-.58.451-1.09 1.142-1.529C3.335.89 4.234.558 5.34.335 6.444.112 7.664 0 8.999 0s2.556.112 3.66.335c1.106.223 2.004.554 2.695.993.691.44 1.072.949 1.142 1.53l1.23 5.066c.18.759.27 1.589.27 2.489z" fill="currentColor"/></symbol><symbol id="icon-transport-plane" viewBox="0 0 23 22"><path d="M18.535 1.18c-.805.18-1.613.362-1.914.859l-2.327 4.373L1.8 9.214l-.506 1.398 9.561.853-1.622 3.786-3.626.813-.91 1.488 2.616.268.298 1.217c.134.431.603.72 1.003.63l1.209-.271 1.4 2.253.911-1.488-.895-3.65 2.626-3.157 5.01 8.293 1.01-1.081L16.8 7.989l2.831-4.058c.305-.497.106-1.307-.093-2.121-.099-.403-.603-.72-1.003-.63z" fill="currentColor"/></symbol><symbol id="icon-transport-walk" viewBox="0 0 18 20"><path d="M13.454 4c1.005 0 1.819-.895 1.819-2s-.814-2-1.819-2c-1.004 0-1.818.895-1.818 2s.814 2 1.819 2zm-1.111 4.969c.208.342.508.605.857.754.35.148.732.175 1.096.076l3.014-.829-.44-1.94-3.014.829-1.253-2.067a1.83 1.83 0 00-1.157-.854l-3.496-.77a1.669 1.669 0 00-1.156.164c-.358.193-.649.51-.827.903L4.46 8.551l1.626.895 1.508-3.317 1.788.394L4.758 15H.728v2h4.03c.635 0 1.232-.372 1.56-.971l1.743-3.196 4.699 1.034 1.65 5.449 1.725-.633-1.65-5.448a2.032 2.032 0 00-.523-.867 1.767 1.767 0 00-.846-.463l-2.763-.607 1.61-2.954.38.625z" fill="currentColor"/></symbol></svg>
